Newaita-dark/actions/22/object-rotate-left.svg

<svg height="22" viewBox="0 0 22 22" width="22" xmlns="http://www.w3.org/2000/svg"><g fill="#e0e0e0"><path d="m3.636719 1.992188c-1.007813 0-1.816407.808593-1.816407 1.816406v6.367187c0 1.007813.808594 1.820313 1.816407 1.820313h3.640625c1.007812 0 1.820312-.8125 1.820312-1.820313v-6.367187c0-1.007813-.8125-1.816406-1.820312-1.816406zm.910156 1.816406h1.820313c.503906 0 .910156.40625.910156.910156v4.550781c0 .503907-.40625.90625-.910156.90625h-1.820313c-.503906 0-.910156-.402343-.910156-.90625v-4.550781c0-.503906.40625-.910156.910156-.910156zm0 0"/><path d="m20.011719 14.726562c0-1.007812-.8125-1.820312-1.820313-1.820312h-6.367187c-1.007813 0-1.820313.8125-1.820313 1.820312v3.636719c0 1.007813.8125 1.820313 1.820313 1.820313h6.367187c1.007813 0 1.820313-.8125 1.820313-1.820313zm0 0"/><path d="m10.914062 6.042969v2.105469c1.175782.761718 2.175782 1.765624 2.941407 2.9375h2.101562c-1.117187-2.15625-2.882812-3.921876-5.042969-5.042969zm0 0"/></g></svg>

<svg xmlns="http://www.w3.org/2000/svg" xmlns:xlink="http://www.w3.org/1999/xlink" width="22px" height="22px" viewBox="0 0 22 22" version="1.1">
<g id="surface1">
     <defs>
  <style id="current-color-scheme" type="text/css">
   .ColorScheme-Text { color:#eeeeee; } .ColorScheme-Highlight { color:#424242; }
  </style>
 </defs>
<path style="fill:currentColor" class="ColorScheme-Text" d="M 3.636719 1.992188 C 2.628906 1.992188 1.820312 2.800781 1.820312 3.808594 L 1.820312 10.175781 C 1.820312 11.183594 2.628906 11.996094 3.636719 11.996094 L 7.277344 11.996094 C 8.285156 11.996094 9.097656 11.183594 9.097656 10.175781 L 9.097656 3.808594 C 9.097656 2.800781 8.285156 1.992188 7.277344 1.992188 Z M 4.546875 3.808594 L 6.367188 3.808594 C 6.871094 3.808594 7.277344 4.214844 7.277344 4.71875 L 7.277344 9.269531 C 7.277344 9.773438 6.871094 10.175781 6.367188 10.175781 L 4.546875 10.175781 C 4.042969 10.175781 3.636719 9.773438 3.636719 9.269531 L 3.636719 4.71875 C 3.636719 4.214844 4.042969 3.808594 4.546875 3.808594 Z M 4.546875 3.808594 "/>
     <defs>
  <style id="current-color-scheme" type="text/css">
   .ColorScheme-Text { color:#eeeeee; } .ColorScheme-Highlight { color:#424242; }
  </style>
 </defs>
<path style="fill:currentColor" class="ColorScheme-Text" d="M 20.011719 14.726562 C 20.011719 13.71875 19.199219 12.90625 18.191406 12.90625 L 11.824219 12.90625 C 10.816406 12.90625 10.003906 13.71875 10.003906 14.726562 L 10.003906 18.363281 C 10.003906 19.371094 10.816406 20.183594 11.824219 20.183594 L 18.191406 20.183594 C 19.199219 20.183594 20.011719 19.371094 20.011719 18.363281 Z M 20.011719 14.726562 "/>
     <defs>
  <style id="current-color-scheme" type="text/css">
   .ColorScheme-Text { color:#eeeeee; } .ColorScheme-Highlight { color:#424242; }
  </style>
 </defs>
<path style="fill:currentColor" class="ColorScheme-Text" d="M 10.914062 6.042969 L 10.914062 8.148438 C 12.089844 8.910156 13.089844 9.914062 13.855469 11.085938 L 15.957031 11.085938 C 14.839844 8.929688 13.074219 7.164062 10.914062 6.042969 Z M 10.914062 6.042969 "/>
</g>
</svg>
